Papirus/24x24/apps/godot.svg

<svg xmlns="http://www.w3.org/2000/svg" width="24" height="24" version="1">
 <path style="opacity:.2" d="m10 3-0.082031 0.0478515-2.417969 0.9521485 0.5 2.5-2.301758 1.0527345-1.198242-1.0527345-2.5 2.5 1 1.547852v5.182617l-1-0.399414v1.666992c2.0133334 3.075833 5.5 4.501953 10 4.501953s7.986666-1.42612 10-4.501953v-1.666992l-1 0.399414v-5.182617l1-1.547852-2.5-2.5-1.198242 1.0527345-2.301758-1.0527345 0.5-2.5-2.5-1-0.855469 1.5h-2.291015z"/>
 <path style="fill:#3888c3" d="m10 2.5-0.082031 0.0478515-2.417969 0.9521485 0.5 2.5-2.301758 1.0527345-1.198242-1.0527345-2.5 2.5 1 1.547852v5.182617l-1-0.399414v1.666992c2.0133334 3.075833 5.5 4.501953 10 4.501953s7.986666-1.42612 10-4.501953v-1.666992l-1 0.399414v-5.182617l1-1.547852-2.5-2.5-1.198242 1.0527345-2.301758-1.0527345 0.5-2.5-2.5-1-0.855469 1.5h-2.291015z"/>
 <path style="opacity:.2;fill:#ffffff" d="m10 2.5-0.0820312 0.046875-2.4179688 0.953125 0.0917969 0.4628906 2.3261719-0.9160156 0.0820312-0.046875 0.853516 1.5h2.291015l0.855469-1.5 2.408203 0.9628906 0.091797-0.4628906-2.5-1-0.855469 1.5h-2.291015zm-5.5 3.5-2.5 2.5 0.1953125 0.3046875 2.3046875-2.3046875 1.1972656 1.0527344 2.3027344-1.0527344-0.0917969-0.4589844-2.2109375 1.0117188zm15 0-1.197266 1.0527344-2.210937-1.0117188-0.091797 0.4589844 2.302734 1.0527344 1.197266-1.0527344 2.304688 2.3046875 0.195312-0.3046875zm-17.5 8.832031v0.5l1 0.398438v-0.499999zm20 0-1 0.398438v0.499999l1-0.398438z"/>
 <g style="opacity:.2" transform="matrix(.5 0 0 .5 0 .4999455)">
  <path d="m14 20c2.2096 0 4 1.7904 4 4s-1.7904 4-4 4-4-1.7904-4-4 1.7904-4 4-4z"/>
  <path d="m16 24a2 2 0 1 1 -4 0 2 2 0 1 1 4 0z"/>
 </g>
 <g transform="scale(.5)">
  <path style="fill:#ffffff" d="m14 20c2.2096 0 4 1.7904 4 4s-1.7904 4-4 4-4-1.7904-4-4 1.7904-4 4-4z"/>
  <path style="fill:#353535" d="m16 24a2 2 0 1 1 -4 0 2 2 0 1 1 4 0z"/>
 </g>
 <path style="opacity:.2" d="m12 11.5c0.554 0 1 0.3345 1 0.75v1.5c0 0.415499-0.446 0.75-1 0.75s-1-0.334501-1-0.75v-1.5c0-0.4155 0.446-0.75 1-0.75z"/>
 <path style="fill:#ffffff" d="m12 11.000054c0.554 0 1 0.3345 1 0.75v1.5c0 0.4155-0.446 0.75-1 0.75s-1-0.3345-1-0.75v-1.5c0-0.4155 0.446-0.75 1-0.75z"/>
 <g style="opacity:.2" transform="matrix(.5 0 0 .5 10 .4999455)">
  <path d="m14 20c2.2096 0 4 1.7904 4 4s-1.7904 4-4 4-4-1.7904-4-4 1.7904-4 4-4z"/>
  <path d="m16 24a2 2 0 1 1 -4 0 2 2 0 1 1 4 0z"/>
 </g>
 <g transform="matrix(.5 0 0 .5 10 0)">
  <path style="fill:#ffffff" d="m14 20c2.2096 0 4 1.7904 4 4s-1.7904 4-4 4-4-1.7904-4-4 1.7904-4 4-4z"/>
  <path style="fill:#353535" d="m16 24a2 2 0 1 1 -4 0 2 2 0 1 1 4 0z"/>
 </g>
 <path style="opacity:.2;stroke:#000000;fill:none" d="m21.810219 15.34446-1.310219 0.364963v1.360318l-2 0.66357v-1.393497l-2 0.364964v1.360318l-3 0.434307v-1.5h-1.5m-9.810219-1.654943 1.310219 0.364963v1.360318l2 0.66357v-1.393497l2 0.364964v1.360318l3 0.434307v-1.5h1.5"/>
 <path style="stroke:#ffffff;fill:none" d="m21.810219 14.844707-1.310219 0.364963v1.360318l-2 0.66357v-1.393497l-2 0.364964v1.360318l-3 0.434307v-1.5h-1.5m-9.810219-1.654943 1.310219 0.364963v1.360318l2 0.66357v-1.393497l2 0.364964v1.360318l3 0.434307v-1.5h1.5"/>
</svg>

<svg xmlns="http://www.w3.org/2000/svg" width="24" height="24" version="1">
 <path d="M 10,3 9.917969,3.0478515 7.5,4 8,6.5 5.698242,7.5527345 4.5,6.5 2,9 l 1,1.547852 0,5.182617 0,-0.399414 0,1.666992 c 0,0 2,4.501953 9,4.501953 7,0 9,-4.501953 9,-4.501953 l 0,-1.666992 0,0.399414 0,-5.182617 L 22,9 19.5,6.5 18.301758,7.5527345 16,6.5 16.5,4 14,3 l -0.855469,1.5 -2.291015,0 z" style="opacity:0.2"/>
 <path style="fill:#3888c3" d="M 10,2.5 9.917969,2.5478515 7.5,3.5 8,6 5.698242,7.0527345 4.5,6 2,8.5 l 1,1.547852 0,5.182617 0,-0.399414 0,1.666992 C 3,16.498047 5,21 12,21 c 7,0 9,-4.501953 9,-4.501953 l 0,-1.666992 0,0.399414 0,-5.182617 L 22,8.5 19.5,6 18.301758,7.0527345 16,6 16.5,3.5 14,2.5 13.144531,4 10.853516,4 Z"/>
 <g style="opacity:.2" transform="matrix(.5 0 0 .5 0 .4999455)">
  <path d="m14 20c2.2096 0 4 1.7904 4 4s-1.7904 4-4 4-4-1.7904-4-4 1.7904-4 4-4z"/>
  <path d="m16 24a2 2 0 1 1 -4 0 2 2 0 1 1 4 0z"/>
 </g>
 <g transform="scale(.5)">
  <path style="fill:#ffffff" d="m14 20c2.2096 0 4 1.7904 4 4s-1.7904 4-4 4-4-1.7904-4-4 1.7904-4 4-4z"/>
  <path style="fill:#353535" d="m16 24a2 2 0 1 1 -4 0 2 2 0 1 1 4 0z"/>
 </g>
 <path style="opacity:.2" d="m12 11.5c0.554 0 1 0.3345 1 0.75v1.5c0 0.415499-0.446 0.75-1 0.75s-1-0.334501-1-0.75v-1.5c0-0.4155 0.446-0.75 1-0.75z"/>
 <path style="fill:#ffffff" d="m12 11.000054c0.554 0 1 0.3345 1 0.75v1.5c0 0.4155-0.446 0.75-1 0.75s-1-0.3345-1-0.75v-1.5c0-0.4155 0.446-0.75 1-0.75z"/>
 <g style="opacity:.2" transform="matrix(.5 0 0 .5 10 .4999455)">
  <path d="m14 20c2.2096 0 4 1.7904 4 4s-1.7904 4-4 4-4-1.7904-4-4 1.7904-4 4-4z"/>
  <path d="m16 24a2 2 0 1 1 -4 0 2 2 0 1 1 4 0z"/>
 </g>
 <g transform="matrix(.5 0 0 .5 10 0)">
  <path style="fill:#ffffff" d="m14 20c2.2096 0 4 1.7904 4 4s-1.7904 4-4 4-4-1.7904-4-4 1.7904-4 4-4z"/>
  <path style="fill:#353535" d="m16 24a2 2 0 1 1 -4 0 2 2 0 1 1 4 0z"/>
 </g>
 <path d="m 21,16 -3.5,0 0,2 -4,0 0,-2.00035 -1.5,0 M 3,16 l 3.5,0 0,2 4,0 0,-2.00035 1.5,0" style="opacity:0.2;fill:none;stroke:#000000"/>
 <path style="fill:none;stroke:#ffffff" d="m 21,15.5 -3.5,0 0,2 -4,0 0,-2.00035 -1.5,0 M 3,15.5 l 3.5,0 0,2 4,0 0,-2.00035 1.5,0"/>
 <path style="fill:#ffffff;opacity:0.2" d="M 10 2.5 L 9.9179688 2.546875 L 7.5 3.5 L 7.5917969 3.9628906 L 9.9179688 3.046875 L 10 3 L 10.853516 4.5 L 13.144531 4.5 L 14 3 L 16.408203 3.9628906 L 16.5 3.5 L 14 2.5 L 13.144531 4 L 10.853516 4 L 10 2.5 z M 4.5 6 L 2 8.5 L 2.1953125 8.8046875 L 4.5 6.5 L 5.6972656 7.5527344 L 8 6.5 L 7.9082031 6.0410156 L 5.6972656 7.0527344 L 4.5 6 z M 19.5 6 L 18.302734 7.0527344 L 16.091797 6.0410156 L 16 6.5 L 18.302734 7.5527344 L 19.5 6.5 L 21.804688 8.8046875 L 22 8.5 L 19.5 6 z"/>
</svg>
